.local/share/icons/Gruvbox-Plus-Dark/apps/scalable/bridge-constructor-portal.svg

<svg xmlns="http://www.w3.org/2000/svg" style="isolation:isolate" width="256" height="256" viewBox="0 0 256 256">
 <defs>
  <filter id="Jv938UCd2dZ4say3RkH7FRMkdWVyrlLr" width="400%" height="400%" x="-200%" y="-200%" color-interpolation-filters="sRGB" filterUnits="objectBoundingBox">
   <feGaussianBlur xmlns="http://www.w3.org/2000/svg" in="SourceGraphic" stdDeviation="4.294"/>
   <feOffset xmlns="http://www.w3.org/2000/svg" dx="0" dy="4" result="pf_100_offsetBlur"/>
   <feFlood xmlns="http://www.w3.org/2000/svg" flood-opacity=".4"/>
   <feComposite xmlns="http://www.w3.org/2000/svg" in2="pf_100_offsetBlur" operator="in" result="pf_100_dropShadow"/>
   <feBlend xmlns="http://www.w3.org/2000/svg" in="SourceGraphic" in2="pf_100_dropShadow" mode="normal"/>
  </filter>
 </defs>
 <g filter="url(#Jv938UCd2dZ4say3RkH7FRMkdWVyrlLr)">
  <linearGradient id="_lgradient_70" x1=".993" x2=".002" y1=".988" y2=".193" gradientTransform="matrix(244.648309,0,0,228.338396,5.681691,11.95)" gradientUnits="userSpaceOnUse">
   <stop offset="0%" style="stop-color:#3c3836"/>
   <stop offset="100%" style="stop-color:#665c54"/>
  </linearGradient>
  <path fill="url(#_lgradient_70)" d="M 165.690609 11.95 C 239.746317 11.95 250.33 22.507198 250.33 96.493859 L 250.33 155.744653 C 250.33 229.73091 239.746317 240.288396 165.690609 240.288396 L 90.321084 240.288396 C 16.26538 240.288396 5.681691 229.73091 5.681691 155.744653 L 5.681691 96.493859 C 5.681691 22.507198 16.26538 11.95 90.321084 11.95 L 165.690609 11.95 Z"/>
 </g>
 <g opacity=".4">
  <linearGradient id="_lgradient_71" x1=".517" x2=".517" y1="0" y2="1" gradientTransform="matrix(244.65,0,0,228.34,5.68,11.95)" gradientUnits="userSpaceOnUse">
   <stop offset="0%" style="stop-color:#ebdbb2"/>
   <stop offset="12.5%" stop-opacity=".098" style="stop-color:#ebdbb2"/>
   <stop offset="92.5%" stop-opacity=".098" style="stop-color:#282828"/>
   <stop offset="100%" stop-opacity=".498" style="stop-color:#282828"/>
  </linearGradient>
  <path fill="url(#_lgradient_71)" fill-rule="evenodd" d="M 165.06803 11.951234 C 169.395994 11.941409 173.723944 11.990533 178.051908 12.088781 C 181.927398 12.167379 185.802873 12.31475 189.678362 12.540721 C 193.1309 12.737216 196.583423 13.022134 200.026115 13.395476 C 203.085193 13.729518 206.144271 14.181458 209.173842 14.741469 C 211.888645 15.242533 214.57394 15.881143 217.219897 16.6573 C 219.619947 17.354858 221.970814 18.219439 224.242988 19.241215 C 226.357793 20.184394 228.384061 21.304417 230.302129 22.591462 C 232.141505 23.829383 233.862851 25.244151 235.436659 26.80629 C 237.000621 28.378252 238.417046 30.087764 239.656409 31.924995 C 240.944972 33.840824 242.066305 35.864728 243.020409 37.967229 C 244.043389 40.246576 244.908985 42.584873 245.617197 44.972292 C 246.394255 47.615155 247.033606 50.297317 247.535265 53.008956 C 248.095924 56.034984 248.548399 59.080665 248.882828 62.13617 C 249.256611 65.574836 249.541856 69.013506 249.738578 72.462003 C 249.964823 76.323139 250.112361 80.194101 250.200884 84.055237 C 250.289421 88.378131 250.338591 92.701032 250.32876 97.014106 L 250.32876 155.225886 C 250.338591 159.54878 250.289421 163.861854 250.200884 168.184747 C 250.112361 172.05571 249.964823 175.916853 249.738578 179.777981 C 249.541856 183.226485 249.256611 186.674975 248.882828 190.103826 C 248.548399 193.15933 248.095924 196.214835 247.535265 199.240851 C 247.033606 201.942664 246.394255 204.624837 245.617197 207.267703 C 244.908985 209.655115 244.043389 212.003235 243.020409 214.272755 C 242.066305 216.38509 240.944972 218.399156 239.656409 220.314999 C 238.417046 222.152226 237.000621 223.871561 235.436659 225.433697 C 233.862851 226.995832 232.141505 228.410601 230.302129 229.648532 C 228.384061 230.935575 226.357793 232.055598 224.242988 232.998768 C 221.970814 234.020552 219.619947 234.885137 217.219897 235.592507 C 214.57394 236.368672 211.888645 237.007276 209.173842 237.498515 C 206.144271 238.068354 203.085193 238.510465 200.026115 238.844519 C 196.583423 239.21785 193.1309 239.502777 189.678362 239.699269 C 185.802873 239.925235 181.927398 240.072615 178.051908 240.161035 C 173.723944 240.249454 169.395994 240.298581 165.06803 240.288762 L 90.941963 240.288762 C 86.614006 240.298581 82.286049 240.249454 77.9581 240.161035 C 74.08261 240.072615 70.20712 239.925235 66.331638 239.699269 C 62.879108 239.502777 59.426578 239.21785 55.983886 238.844519 C 52.924808 238.510465 49.865733 238.068354 46.836162 237.498515 C 44.121356 237.007276 41.436057 236.368672 38.7901 235.592507 C 36.390053 234.885137 34.039187 234.020552 31.767009 232.998768 C 29.652213 232.055598 27.625943 230.935575 25.707871 229.648532 C 23.868489 228.410601 22.147143 226.995832 20.573343 225.433697 C 19.009377 223.871561 17.592955 222.152226 16.353586 220.314999 C 15.065036 218.399156 13.943701 216.38509 12.989584 214.272755 C 11.966612 212.003235 11.101021 209.655115 10.392811 207.267703 C 9.615746 204.624837 8.976389 201.942664 8.47474 199.240851 C 7.914072 196.214835 7.461604 193.15933 7.127172 190.103826 C 6.753394 186.674975 6.468142 183.226485 6.271417 179.777981 C 6.045183 175.916853 5.897639 172.05571 5.809112 168.184747 C 5.720586 163.861854 5.671405 159.54878 5.681241 155.225886 L 5.681241 97.014106 C 5.671405 92.701032 5.720586 88.378131 5.809112 84.055237 C 5.897639 80.194101 6.045183 76.323139 6.271417 72.462003 C 6.468142 69.013506 6.753394 65.574836 7.127172 62.13617 C 7.461604 59.080665 7.914072 56.034984 8.47474 53.008956 C 8.976389 50.297317 9.615746 47.615155 10.392811 44.972292 C 11.101021 42.584873 11.966612 40.246576 12.989584 37.967229 C 13.943701 35.864728 15.065036 33.840824 16.353586 31.924995 C 17.592955 30.087764 19.009377 28.378252 20.573343 26.80629 C 22.147143 25.244151 23.868489 23.829383 25.707871 22.591462 C 27.625943 21.304417 29.652213 20.184394 31.767009 19.241215 C 34.039187 18.219439 36.390053 17.354858 38.7901 16.6573 C 41.436057 15.881143 44.121356 15.242533 46.836162 14.741469 C 49.865733 14.181458 52.924808 13.729518 55.983886 13.395476 C 59.426578 13.022134 62.879108 12.737216 66.331638 12.540721 C 70.20712 12.31475 74.08261 12.167379 77.9581 12.088781 C 82.286049 11.990533 86.614006 11.941409 90.941963 11.951234 L 165.06803 11.951234 Z M 165.077876 15.959741 C 169.376317 15.949916 173.674759 15.99904 177.973216 16.087463 C 181.799522 16.175886 185.625827 16.323257 189.452133 16.539402 C 192.835809 16.735898 196.219486 17.010992 199.583486 17.384332 C 202.554026 17.698726 205.514751 18.131016 208.445953 18.681203 C 211.023049 19.152792 213.580483 19.761928 216.098564 20.498786 C 218.321569 21.147221 220.495374 21.952852 222.600334 22.896029 C 224.508571 23.750785 226.338116 24.762737 228.069293 25.922059 C 229.692286 27.012609 231.207063 28.260355 232.59398 29.645648 C 233.980897 31.030941 235.230091 32.543956 236.331763 34.165043 C 237.492434 35.894202 238.505568 37.711787 239.361333 39.607968 C 240.305606 41.720292 241.112187 43.891565 241.761369 46.102139 C 242.508934 48.617282 243.108947 51.161898 243.590914 53.735987 C 244.131912 56.663768 244.564709 59.6112 244.889308 62.578282 C 245.263091 65.938355 245.538505 69.308252 245.735227 72.687976 C 245.951626 76.509812 246.10901 80.321821 246.187687 84.143656 C 246.276225 88.437084 246.325394 92.720685 246.325394 97.014106 C 246.325394 97.014106 246.325394 97.014106 246.325394 97.014106 L 246.325394 155.225886 C 246.325394 155.225886 246.325394 155.225886 246.325394 155.225886 C 246.325394 159.519306 246.276225 163.802907 246.187687 168.096328 C 246.10901 171.918164 245.951626 175.739999 245.735227 179.552015 C 245.538505 182.931739 245.263091 186.301629 244.889308 189.671533 C 244.564709 192.628784 244.131912 195.576216 243.590914 198.503994 C 243.108947 201.078094 242.508934 203.622706 241.761369 206.137845 C 241.112187 208.358253 240.305606 210.5197 239.361333 212.63202 C 238.505568 214.528209 237.492434 216.355617 236.331763 218.074952 C 235.230091 219.705853 233.980897 221.218876 232.59398 222.604172 C 231.207063 223.979634 229.692286 225.227385 228.069293 226.317935 C 226.338116 227.477251 224.508571 228.489201 222.600334 229.343951 C 220.495374 230.296956 218.321569 231.092775 216.098564 231.741198 C 213.580483 232.478056 211.023049 233.087202 208.445953 233.558787 C 205.514751 234.108972 202.554026 234.541264 199.583486 234.865483 C 196.219486 235.228995 192.835809 235.513922 189.452133 235.70058 C 185.625827 235.916726 181.799522 236.073926 177.973216 236.152526 C 173.674759 236.25078 169.376317 236.290072 165.077876 236.290072 C 165.077876 236.290072 165.077876 236.290072 165.06803 236.290072 L 90.941963 236.290072 C 90.932125 236.290072 90.932125 236.290072 90.932125 236.290072 C 86.633683 236.290072 82.335234 236.25078 78.036784 236.152526 C 74.210479 236.073926 70.384173 235.916726 66.557868 235.70058 C 63.174195 235.513922 59.790522 235.228995 56.426518 234.865483 C 53.455967 234.541264 50.495253 234.108972 47.564048 233.558787 C 44.986944 233.087202 42.429517 232.478056 39.911433 231.741198 C 37.688439 231.092775 35.514626 230.296956 33.409665 229.343951 C 31.501429 228.489201 29.671886 227.477251 27.940703 226.317935 C 26.31772 225.227385 24.802935 223.979634 23.416022 222.604172 C 22.029109 221.218876 20.779904 219.705853 19.678243 218.074952 C 18.517564 216.355617 17.504428 214.528209 16.648674 212.63202 C 15.704392 210.5197 14.897819 208.358253 14.248626 206.137845 C 13.50107 203.622706 12.901057 201.078094 12.419081 198.503994 C 11.878086 195.576216 11.445291 192.628784 11.120694 189.671533 C 10.746916 186.301629 10.471501 182.931739 10.274776 179.552015 C 10.058378 175.739999 9.900997 171.918164 9.822307 168.096328 C 9.733781 163.802907 9.6846 159.519306 9.6846 155.225886 C 9.6846 155.225886 9.6846 155.225886 9.6846 155.225886 L 9.6846 97.014106 C 9.6846 97.014106 9.6846 97.014106 9.6846 97.014106 C 9.6846 92.720685 9.733781 88.437084 9.822307 84.143656 C 9.900997 80.321821 10.058378 76.509812 10.274776 72.687976 C 10.471501 69.308252 10.746916 65.938355 11.120694 62.578282 C 11.445291 59.6112 11.878086 56.663768 12.419081 53.735987 C 12.901057 51.161898 13.50107 48.617282 14.248626 46.102139 C 14.897819 43.891565 15.704392 41.720292 16.648674 39.607968 C 17.504428 37.711787 18.517564 35.894202 19.678243 34.165043 C 20.779904 32.543956 22.029109 31.030941 23.416022 29.645648 C 24.802935 28.260355 26.31772 27.012609 27.940703 25.922059 C 29.671886 24.762737 31.501429 23.750785 33.409665 22.896029 C 35.514626 21.952852 37.688439 21.147221 39.911433 20.498786 C 42.429517 19.761928 44.986944 19.152792 47.564048 18.681203 C 50.495253 18.131016 53.455967 17.698726 56.426518 17.384332 C 59.790522 17.010992 63.174195 16.735898 66.557868 16.539402 C 70.384173 16.323257 74.210479 16.175886 78.036784 16.087463 C 82.335234 15.99904 86.633683 15.949916 90.932125 15.959741 C 90.932125 15.959741 90.932125 15.959741 90.941963 15.959741 L 165.06803 15.959741 C 165.077876 15.959741 165.077876 15.959741 165.077876 15.959741 Z"/>
 </g>
 <g>
  <defs>
   <filter id="Qe3OhF3KYWdyQWgYVkjXrDdIfNLL3PsN" width="400%" height="400%" x="-200%" y="-200%" color-interpolation-filters="sRGB" filterUnits="objectBoundingBox">
    <feGaussianBlur xmlns="http://www.w3.org/2000/svg" stdDeviation="4.294"/>
   </filter>
  </defs>
  <g opacity=".4" filter="url(#Qe3OhF3KYWdyQWgYVkjXrDdIfNLL3PsN)">
   <path d="M 179.138393 64.5625 L 193.379464 64.5625 C 197.309395 64.5625 200.5 67.753105 200.5 71.683036 L 200.5 186.90625 C 200.5 190.836181 197.309395 194.026786 193.379464 194.026786 L 179.138393 194.026786 C 175.208462 194.026786 172.017857 190.836181 172.017857 186.90625 L 172.017857 71.683036 C 172.017857 67.753105 175.208462 64.5625 179.138393 64.5625 Z"/>
  </g>
  <defs>
   <filter id="KA9xjKkYyOfraTjIJimperrMJNMM4zc1" width="400%" height="400%" x="-200%" y="-200%" color-interpolation-filters="sRGB" filterUnits="objectBoundingBox">
    <feGaussianBlur xmlns="http://www.w3.org/2000/svg" stdDeviation="4.294"/>
   </filter>
  </defs>
  <g opacity=".4" filter="url(#KA9xjKkYyOfraTjIJimperrMJNMM4zc1)">
   <path d="M 62.620536 64.5625 L 76.861607 64.5625 C 80.791538 64.5625 83.982143 67.753105 83.982143 71.683036 L 83.982143 186.90625 C 83.982143 190.836181 80.791538 194.026786 76.861607 194.026786 L 62.620536 194.026786 C 58.690605 194.026786 55.5 190.836181 55.5 186.90625 L 55.5 71.683036 C 55.5 67.753105 58.690605 64.5625 62.620536 64.5625 Z"/>
  </g>
  <path fill="#928374" d="M 69.741071 74.919643 C 66.154911 74.919643 63.267857 77.48591 63.267857 80.673613 L 63.267857 172.737101 C 63.267857 175.924804 66.154911 178.491071 69.741071 178.491071 L 176.549105 178.491071 C 180.135268 178.491071 183.022321 175.924804 183.022321 172.737101 L 183.022321 80.673613 C 183.022321 77.48591 180.135268 74.919643 176.549105 74.919643 L 69.741071 74.919643 Z M 173.3125 74.919643 C 169.726339 74.919643 166.839286 77.48591 166.839286 80.673613 L 166.839286 172.737101 C 166.839286 175.924804 169.726339 178.491071 173.3125 178.491071 L 186.258926 178.491071 C 189.845087 178.491071 192.732143 175.924804 192.732143 172.737101 L 192.732143 80.673613 C 192.732143 77.48591 189.845087 74.919643 186.258926 74.919643 L 173.3125 74.919643 Z"/>
  <defs>
   <linearGradient id="_lgradient_72" x1=".5" x2=".5" y1="1" y2="0">
    <stop offset="0%" style="stop-color:#fe8019"/>
    <stop offset="100%" style="stop-color:#fabd2f"/>
   </linearGradient>
  </defs>
  <path d="M 62.620536 61.973214 L 76.861607 61.973214 C 80.791538 61.973214 83.982143 65.163819 83.982143 69.09375 L 83.982143 184.316964 C 83.982143 188.246895 80.791538 191.4375 76.861607 191.4375 L 62.620536 191.4375 C 58.690605 191.4375 55.5 188.246895 55.5 184.316964 L 55.5 69.09375 C 55.5 65.163819 58.690605 61.973214 62.620536 61.973214 Z" style="fill:url(#_lgradient_72)"/>
  <defs>
   <linearGradient id="_lgradient_73" x1=".516" x2=".52" y1="1.651" y2=".098">
    <stop offset="0%" style="stop-color:#458588"/>
    <stop offset="100%" style="stop-color:#8ec07c"/>
   </linearGradient>
  </defs>
  <path d="M 179.138393 61.973214 L 193.379464 61.973214 C 197.309395 61.973214 200.5 65.163819 200.5 69.09375 L 200.5 184.316964 C 200.5 188.246895 197.309395 191.4375 193.379464 191.4375 L 179.138393 191.4375 C 175.208462 191.4375 172.017857 188.246895 172.017857 184.316964 L 172.017857 69.09375 C 172.017857 65.163819 175.208462 61.973214 179.138393 61.973214 Z" style="fill:url(#_lgradient_73)"/>
  <path fill="#3c3836" fill-rule="evenodd" d="M 130.5 152.6 L 130.5 155.1 L 125.5 155.1 L 125.5 152.6 L 125.5 98.22 L 125.5 95.72 L 130.5 95.72 L 130.5 98.22 L 130.5 152.6 Z M 177.26 155.1 L 78.74 155.1 L 128 94.25 L 177.26 155.1 Z M 166.78 150.1 L 89.22 150.1 L 128 102.2 L 166.78 150.1 Z"/>
  <defs>
   <filter id="OILiacCmuYiefeQZ5ZcRH7EBUEG5U75V" width="400%" height="400%" x="-200%" y="-200%" color-interpolation-filters="sRGB" filterUnits="objectBoundingBox">
    <feGaussianBlur xmlns="http://www.w3.org/2000/svg" stdDeviation="4.294"/>
   </filter>
  </defs>
  <g opacity=".4" filter="url(#OILiacCmuYiefeQZ5ZcRH7EBUEG5U75V)">
   <path d="M 128 85.276786 C 123.879672 85.276786 119.928103 86.913579 117.014591 89.827091 C 114.101079 92.740603 112.464286 96.692172 112.464286 100.8125 C 112.464286 104.932828 114.101079 108.884397 117.014591 111.797909 C 119.928103 114.711421 123.879672 116.348214 128 116.348214 C 132.120328 116.348214 136.071897 114.711421 138.985409 111.797909 C 141.898921 108.884397 143.535714 104.932828 143.535714 100.8125 C 143.535714 96.692172 141.898921 92.740603 138.985409 89.827091 C 136.071897 86.913579 132.120328 85.276786 128 85.276786 L 128 85.276786 Z M 83.982143 139.651786 C 79.861815 139.651786 75.910245 141.288579 72.996734 144.202091 C 70.083222 147.115603 68.446429 151.067172 68.446429 155.1875 C 68.446429 159.307828 70.083222 163.259397 72.996734 166.172909 C 75.910245 169.086421 79.861815 170.723214 83.982143 170.723214 C 88.10247 170.723214 92.05404 169.086421 94.967552 166.172909 C 97.881063 163.259397 99.517857 159.307828 99.517857 155.1875 C 99.517857 151.067172 97.881063 147.115603 94.967552 144.202091 C 92.05404 141.288579 88.10247 139.651786 83.982143 139.651786 L 83.982143 139.651786 Z M 128 139.651786 C 123.879672 139.651786 119.928103 141.288579 117.014591 144.202091 C 114.101079 147.115603 112.464286 151.067172 112.464286 155.1875 C 112.464286 159.307828 114.101079 163.259397 117.014591 166.172909 C 119.928103 169.086421 123.879672 170.723214 128 170.723214 C 132.120328 170.723214 136.071897 169.086421 138.985409 166.172909 C 141.898921 163.259397 143.535714 159.307828 143.535714 155.1875 C 143.535714 151.067172 141.898921 147.115603 138.985409 144.202091 C 136.071897 141.288579 132.120328 139.651786 128 139.651786 L 128 139.651786 Z M 172.017857 139.651786 C 167.89753 139.651786 163.94596 141.288579 161.032448 144.202091 C 158.118937 147.115603 156.482143 151.067172 156.482143 155.1875 C 156.482143 159.307828 158.118937 163.259397 161.032448 166.172909 C 163.94596 169.086421 167.89753 170.723214 172.017857 170.723214 C 176.138185 170.723214 180.089755 169.086421 183.003266 166.172909 C 185.916778 163.259397 187.553571 159.307828 187.553571 155.1875 C 187.553571 151.067172 185.916778 147.115603 183.003266 144.202091 C 180.089755 141.288579 176.138185 139.651786 172.017857 139.651786 L 172.017857 139.651786 Z"/>
  </g>
  <path fill="#ebdbb2" d="M 128 82.6875 C 123.879672 82.6875 119.928103 84.324294 117.014591 87.237805 C 114.101079 90.151317 112.464286 94.102887 112.464286 98.223214 C 112.464286 102.343542 114.101079 106.295112 117.014591 109.208623 C 119.928103 112.122135 123.879672 113.758929 128 113.758929 C 132.120328 113.758929 136.071897 112.122135 138.985409 109.208623 C 141.898921 106.295112 143.535714 102.343542 143.535714 98.223214 C 143.535714 94.102887 141.898921 90.151317 138.985409 87.237805 C 136.071897 84.324294 132.120328 82.6875 128 82.6875 L 128 82.6875 Z M 83.982143 137.0625 C 79.861815 137.0625 75.910245 138.699294 72.996734 141.612805 C 70.083222 144.526317 68.446429 148.477887 68.446429 152.598214 C 68.446429 156.718542 70.083222 160.670112 72.996734 163.583623 C 75.910245 166.497135 79.861815 168.133929 83.982143 168.133929 C 88.10247 168.133929 92.05404 166.497135 94.967552 163.583623 C 97.881063 160.670112 99.517857 156.718542 99.517857 152.598214 C 99.517857 148.477887 97.881063 144.526317 94.967552 141.612805 C 92.05404 138.699294 88.10247 137.0625 83.982143 137.0625 L 83.982143 137.0625 Z M 128 137.0625 C 123.879672 137.0625 119.928103 138.699294 117.014591 141.612805 C 114.101079 144.526317 112.464286 148.477887 112.464286 152.598214 C 112.464286 156.718542 114.101079 160.670112 117.014591 163.583623 C 119.928103 166.497135 123.879672 168.133929 128 168.133929 C 132.120328 168.133929 136.071897 166.497135 138.985409 163.583623 C 141.898921 160.670112 143.535714 156.718542 143.535714 152.598214 C 143.535714 148.477887 141.898921 144.526317 138.985409 141.612805 C 136.071897 138.699294 132.120328 137.0625 128 137.0625 L 128 137.0625 Z M 172.017857 137.0625 C 167.89753 137.0625 163.94596 138.699294 161.032448 141.612805 C 158.118937 144.526317 156.482143 148.477887 156.482143 152.598214 C 156.482143 156.718542 158.118937 160.670112 161.032448 163.583623 C 163.94596 166.497135 167.89753 168.133929 172.017857 168.133929 C 176.138185 168.133929 180.089755 166.497135 183.003266 163.583623 C 185.916778 160.670112 187.553571 156.718542 187.553571 152.598214 C 187.553571 148.477887 185.916778 144.526317 183.003266 141.612805 C 180.089755 138.699294 176.138185 137.0625 172.017857 137.0625 L 172.017857 137.0625 Z"/>
 </g>
</svg>

<svg width="256" height="256" version="1.1" xmlns="http://www.w3.org/2000/svg">
  <defs>
    <linearGradient id="linearGradient31" x1=".5002" x2=".5002" y2="1" gradientTransform="matrix(244,0,0,228,5.986,12)" gradientUnits="userSpaceOnUse">
      <stop stop-color="#ebdbb2" stop-opacity=".2" offset="0"/>
      <stop stop-color="#ebdbb2" stop-opacity=".05" offset=".1"/>
      <stop stop-opacity="0" offset=".7036"/>
      <stop stop-opacity=".1" offset=".8975"/>
      <stop stop-opacity=".2" offset="1"/>
    </linearGradient>
    <linearGradient id="linearGradient6" x1="140" x2="140" y1="12" y2="240" gradientUnits="userSpaceOnUse">
      <stop stop-color="#504945" offset="0"/>
      <stop stop-color="#3c3836" offset="1"/>
    </linearGradient>
    <linearGradient id="_lgradient_72" x1="148.7" x2="148.7" y1="89.79" y2="29.07" gradientTransform="scale(.469 2.132)" gradientUnits="userSpaceOnUse">
      <stop stop-color="#fe8019" offset="0"/>
      <stop stop-color="#fabd2f" offset="1"/>
    </linearGradient>
    <linearGradient id="_lgradient_73" x1="398.1" x2="398.3" y1="129.3" y2="35.02" gradientTransform="scale(.469 2.132)" gradientUnits="userSpaceOnUse">
      <stop stop-color="#458588" offset="0"/>
      <stop stop-color="#8ec07c" offset="1"/>
    </linearGradient>
  </defs>
  <path d="m165 12c72 0 85 15 85 87v56c0 70-13 85-85 85h-74c-72 0-85-15-85-85v-56c0-72 13-87 85-87z" fill="url(#linearGradient6)" style="isolation:isolate"/>
  <g transform="matrix(1.085 0 0 1.085 -10.91 -10.91)" style="isolation:isolate">
    <g fill="#282828" filter="url(#Qe3OhF3KYWdyQWgYVkjXrDdIfNLL3PsN)">
      <path d="m179.1 64.56h14.24c3.93 0 7.121 3.191 7.121 7.121v115.2c0 3.93-3.191 7.121-7.121 7.121h-14.24c-3.93 0-7.121-3.191-7.121-7.121v-115.2c0-3.93 3.191-7.121 7.121-7.121z" fill="#282828"/>
    </g>
    <g fill="#282828" filter="url(#KA9xjKkYyOfraTjIJimperrMJNMM4zc1)">
      <path d="m62.62 64.56h14.24c3.93 0 7.121 3.191 7.121 7.121v115.2c0 3.93-3.191 7.121-7.121 7.121h-14.24c-3.93 0-7.121-3.191-7.121-7.121v-115.2c0-3.93 3.191-7.121 7.121-7.121z" fill="#282828"/>
    </g>
    <path d="m69.74 74.92c-3.586 0-6.473 2.566-6.473 5.754v92.06c0 3.188 2.887 5.754 6.473 5.754h106.8c3.586 0 6.473-2.566 6.473-5.754v-92.06c0-3.188-2.887-5.754-6.473-5.754zm103.6 0c-3.586 0-6.473 2.566-6.473 5.754v92.06c0 3.188 2.887 5.754 6.473 5.754h12.95c3.586 0 6.473-2.566 6.473-5.754v-92.06c0-3.188-2.887-5.754-6.473-5.754z" fill="#928374"/>
    <path d="m62.62 61.97h14.24c3.93 0 7.121 3.191 7.121 7.121v115.2c0 3.93-3.191 7.121-7.121 7.121h-14.24c-3.93 0-7.121-3.191-7.121-7.121v-115.2c0-3.93 3.191-7.121 7.121-7.121z" fill="url(#_lgradient_72)"/>
    <path d="m179.1 61.97h14.24c3.93 0 7.121 3.191 7.121 7.121v115.2c0 3.93-3.191 7.121-7.121 7.121h-14.24c-3.93 0-7.121-3.191-7.121-7.121v-115.2c0-3.93 3.191-7.121 7.121-7.121z" fill="url(#_lgradient_73)"/>
    <path d="m130.5 152.6v2.5h-5v-59.38h5v2.5zm46.76 2.5h-98.52l49.26-60.85zm-10.48-5h-77.56l38.78-47.9z" fill="#3c3836" fill-rule="evenodd"/>
    <g filter="url(#OILiacCmuYiefeQZ5ZcRH7EBUEG5U75V)" opacity=".4">
      <path d="m128 85.28c-4.12 0-8.072 1.637-10.99 4.55s-4.55 6.865-4.55 10.99c0 4.12 1.637 8.072 4.55 10.99s6.865 4.55 10.99 4.55 8.072-1.637 10.99-4.55 4.55-6.865 4.55-10.99c0-4.12-1.637-8.072-4.55-10.99s-6.865-4.55-10.99-4.55zm-44.02 54.38c-4.12 0-8.072 1.637-10.99 4.55-2.914 2.914-4.55 6.865-4.55 10.99s1.637 8.072 4.55 10.99c2.914 2.914 6.865 4.55 10.99 4.55 4.12 0 8.072-1.637 10.99-4.55 2.914-2.914 4.55-6.865 4.55-10.99s-1.637-8.072-4.55-10.99c-2.914-2.914-6.865-4.55-10.99-4.55zm44.02 0c-4.12 0-8.072 1.637-10.99 4.55s-4.55 6.865-4.55 10.99 1.637 8.072 4.55 10.99 6.865 4.55 10.99 4.55 8.072-1.637 10.99-4.55 4.55-6.865 4.55-10.99-1.637-8.072-4.55-10.99-6.865-4.55-10.99-4.55zm44.02 0c-4.12 0-8.072 1.637-10.99 4.55s-4.55 6.865-4.55 10.99 1.637 8.072 4.55 10.99 6.865 4.55 10.99 4.55c4.12 0 8.072-1.637 10.99-4.55 2.914-2.914 4.55-6.865 4.55-10.99s-1.637-8.072-4.55-10.99c-2.914-2.914-6.865-4.55-10.99-4.55z" fill="#1d2021"/>
    </g>
    <path d="m128 82.69c-4.12 0-8.072 1.637-10.99 4.55-2.914 2.914-4.55 6.865-4.55 10.99 0 4.12 1.637 8.072 4.55 10.99 2.914 2.914 6.865 4.55 10.99 4.55s8.072-1.637 10.99-4.55c2.914-2.914 4.55-6.865 4.55-10.99 0-4.12-1.637-8.072-4.55-10.99-2.914-2.914-6.865-4.55-10.99-4.55zm-44.02 54.38c-4.12 0-8.072 1.637-10.99 4.55-2.914 2.914-4.55 6.865-4.55 10.99 0 4.12 1.637 8.072 4.55 10.99 2.914 2.914 6.865 4.55 10.99 4.55 4.12 0 8.072-1.637 10.99-4.55 2.914-2.914 4.55-6.865 4.55-10.99 0-4.12-1.637-8.072-4.55-10.99-2.914-2.914-6.865-4.55-10.99-4.55zm44.02 0c-4.12 0-8.072 1.637-10.99 4.55-2.914 2.914-4.55 6.865-4.55 10.99 0 4.12 1.637 8.072 4.55 10.99s6.865 4.55 10.99 4.55 8.072-1.637 10.99-4.55 4.55-6.865 4.55-10.99c0-4.12-1.637-8.072-4.55-10.99-2.914-2.914-6.865-4.55-10.99-4.55zm44.02 0c-4.12 0-8.072 1.637-10.99 4.55-2.914 2.914-4.55 6.865-4.55 10.99 0 4.12 1.637 8.072 4.55 10.99s6.865 4.55 10.99 4.55c4.12 0 8.072-1.637 10.99-4.55 2.914-2.914 4.55-6.865 4.55-10.99 0-4.12-1.637-8.072-4.55-10.99-2.914-2.914-6.865-4.55-10.99-4.55z" fill="#ebdbb2"/>
  </g>
  <path d="m91 12c-72 0-85 15-85 87v56c0 70 13 85 85 85h74c72 0 85-15 85-85v-56c0-72-13-87-85-87zm0 4h74c68 0 80 15 80 83v56c0 66-12 81-80 81h-74c-68 0-80-15-80-81v-56c0-68 12-83 80-83z" fill="url(#linearGradient31)" style="isolation:isolate"/>
</svg>
